components/Common/Svg/svgs/customerService.svg

<svg
  width="90"
  height="90"
  viewBox="0 0 90 90"
  fill="none"
  xmlns="http://www.w3.org/2000/svg"
>
  <circle
    opacity="0.5"
    cx="45"
    cy="45"
    r="45"
    fill="#FFE603"
  ></circle>
  <path
    d="M45.0073 19.1904C32.4309 19.1904 22.1992 29.4221 22.1992 41.9985C22.1992 43.3922 22.1992 54.1737 22.1992 54.3655C22.1992 56.8808 24.2456 58.9271 26.7608 58.9271H28.5429C29.1706 60.6968 30.8607 61.9682 32.843 61.9682C35.3582 61.9682 37.4046 59.9218 37.4046 57.4066V45.0395C37.4046 42.5243 35.3582 40.4779 32.843 40.4779C30.8607 40.4779 29.1706 41.7493 28.5429 43.519H26.7608C26.2277 43.519 25.7162 43.6118 25.2403 43.7805V41.9985C25.2403 31.099 34.1077 22.2315 45.0073 22.2315C55.9068 22.2315 64.7742 31.099 64.7742 41.9985V43.7805C64.2983 43.6118 63.7868 43.519 63.2537 43.519H61.4716C60.8439 41.7493 59.1538 40.4779 57.1715 40.4779C54.6563 40.4779 52.6099 42.5243 52.6099 45.0395V57.4066C52.6099 59.9218 54.6563 61.9682 57.1715 61.9682C57.6319 61.9682 58.0763 61.899 58.4955 61.7716C57.9267 63.6431 56.1854 65.0092 54.1305 65.0092H49.3073C48.6797 63.2395 46.9895 61.9682 45.0073 61.9682C42.492 61.9682 40.4456 64.0145 40.4456 66.5298C40.4456 69.045 42.492 71.0914 45.0073 71.0914C46.9895 71.0914 48.6797 69.82 49.3073 68.0503H54.1305C58.3226 68.0503 61.7331 64.6397 61.7331 60.4476V58.9271H63.2537C65.769 58.9271 67.8153 56.8808 67.8153 54.3655C67.8153 54.1765 67.8153 43.3911 67.8153 41.9985C67.8153 29.4221 57.5836 19.1904 45.0073 19.1904ZM31.3224 45.0395C31.3224 44.2011 32.0045 43.519 32.843 43.519C33.6814 43.519 34.3635 44.2011 34.3635 45.0395V57.4066C34.3635 58.245 33.6814 58.9271 32.843 58.9271C32.0045 58.9271 31.3224 58.245 31.3224 57.4066V45.0395ZM26.7608 46.5601H28.2814V55.886H26.7608C25.9224 55.886 25.2403 55.2039 25.2403 54.3655V48.0806C25.2403 47.2422 25.9224 46.5601 26.7608 46.5601ZM45.0073 68.0503C44.1688 68.0503 43.4867 67.3682 43.4867 66.5298C43.4867 65.6913 44.1688 65.0092 45.0073 65.0092C45.8457 65.0092 46.5278 65.6913 46.5278 66.5298C46.5278 67.3682 45.8457 68.0503 45.0073 68.0503ZM58.6921 57.4066C58.6921 58.245 58.01 58.9271 57.1715 58.9271C56.3331 58.9271 55.651 58.245 55.651 57.4066V45.0395C55.651 44.2011 56.3331 43.519 57.1715 43.519C58.01 43.519 58.6921 44.2011 58.6921 45.0395V57.4066ZM64.7742 54.3655C64.7742 55.2039 64.0921 55.886 63.2537 55.886H61.7331V46.5601H63.2537C64.0921 46.5601 64.7742 47.2422 64.7742 48.0806V54.3655Z"
    fill="#171717"
  ></path>
</svg>

<svg width="90" height="90" viewBox="0 0 90 90" fill="none" xmlns="http://www.w3.org/2000/svg"><circle opacity=".5" cx="45" cy="45" r="45" fill="#FFE603"/><path d="M45.007 19.19C32.431 19.19 22.2 29.422 22.2 41.998v12.367a4.567 4.567 0 0 0 4.562 4.562h1.782a4.569 4.569 0 0 0 4.3 3.041 4.567 4.567 0 0 0 4.562-4.561V45.04a4.567 4.567 0 0 0-4.562-4.562 4.569 4.569 0 0 0-4.3 3.041H26.76c-.533 0-1.045.093-1.52.262v-1.782c0-10.9 8.867-19.768 19.766-19.768 10.9 0 19.767 8.868 19.767 19.767v1.783a4.542 4.542 0 0 0-1.52-.262h-1.782a4.569 4.569 0 0 0-4.3-3.041 4.567 4.567 0 0 0-4.562 4.561v12.368a4.567 4.567 0 0 0 5.886 4.365 4.57 4.57 0 0 1-4.366 3.237h-4.823a4.569 4.569 0 0 0-4.3-3.04 4.567 4.567 0 0 0-4.561 4.56 4.567 4.567 0 0 0 4.561 4.562 4.569 4.569 0 0 0 4.3-3.04h4.823c4.193 0 7.603-3.411 7.603-7.603v-1.52h1.52a4.567 4.567 0 0 0 4.562-4.563V41.998c0-12.576-10.231-22.808-22.808-22.808ZM31.322 45.04c0-.839.683-1.521 1.521-1.521.838 0 1.52.682 1.52 1.52v12.368c0 .838-.682 1.52-1.52 1.52-.839 0-1.52-.682-1.52-1.52V45.04Zm-4.561 1.52h1.52v9.326h-1.52c-.839 0-1.52-.682-1.52-1.52V48.08c0-.839.681-1.52 1.52-1.52Zm18.246 21.49c-.838 0-1.52-.682-1.52-1.52 0-.839.682-1.52 1.52-1.52.839 0 1.52.681 1.52 1.52 0 .838-.681 1.52-1.52 1.52Zm13.685-10.643c0 .838-.682 1.52-1.52 1.52-.839 0-1.521-.682-1.521-1.52V45.04c0-.839.682-1.521 1.52-1.521.839 0 1.521.682 1.521 1.52v12.368Zm6.082-3.041c0 .838-.682 1.52-1.52 1.52h-1.52V46.56h1.52c.838 0 1.52.682 1.52 1.52v6.285Z" fill="#171717"/></svg>
